report_00007_2020-12-11T15:55:29.892Z/uses-long-cache-ttl/comparison/line/2_vs_3.svg

<svg width="640" height="500" xmlns="http://www.w3.org/2000/svg" xmlns:xlink="http://www.w3.org/1999/xlink"><path fill="#fff" d="M0 0h640v500H0z"/><defs><path id="d" stroke-width=".222" stroke="currentColor" d="M-1-1h2v2h-2z"/><path id="b" stroke-width=".222" stroke="currentColor" d="M0-1.33l-1.33 2h2.66z"/><path id="f" stroke-width=".222" stroke="currentColor" d="M0 1.33L1.265.411.782-1.067l-1.564-.009-.483 1.487z"/><use xlink:href="#b" id="c" stroke="currentColor" transform="rotate(180)"/><use xlink:href="#d" id="e" stroke="currentColor" transform="rotate(45)"/><circle id="a" stroke-width=".222" stroke="currentColor" cx="0" cy="0" r="1"/></defs><g fill="none" color="#000" stroke="currentColor"><path stroke="#000" d="M78.8 405.8h9m527.2 0h-9"/><text transform="translate(70.5 409.7)" stroke="none" fill="#000" font-family="Arial" font-size="12" text-anchor="end"><tspan>559100</tspan></text></g><g fill="none" color="#000" stroke="currentColor"><path stroke="#000" d="M78.8 328.6h9m527.2 0h-9"/><text transform="translate(70.5 332.5)" stroke="none" fill="#000" font-family="Arial" font-size="12" text-anchor="end"><tspan>559150</tspan></text></g><g fill="none" color="#000" stroke="currentColor"><path stroke="#000" d="M78.8 251.4h9m527.2 0h-9"/><text transform="translate(70.5 255.3)" stroke="none" fill="#000" font-family="Arial" font-size="12" text-anchor="end"><tspan>559200</tspan></text></g><g fill="none" color="#000" stroke="currentColor"><path stroke="#000" d="M78.8 174.2h9m527.2 0h-9"/><text transform="translate(70.5 178.1)" stroke="none" fill="#000" font-family="Arial" font-size="12" text-anchor="end"><tspan>559250</tspan></text></g><g fill="none" color="#000" stroke="currentColor"><path stroke="#000" d="M78.8 97h9M615 97h-9"/><text transform="translate(70.5 100.9)" stroke="none" fill="#000" font-family="Arial" font-size="12" text-anchor="end"><tspan>559300</tspan></text></g><g fill="none" color="#000" stroke="currentColor"><path stroke="#000" d="M78.8 19.8h9m527.2 0h-9"/><text transform="translate(70.5 23.7)" stroke="none" fill="#000" font-family="Arial" font-size="12" text-anchor="end"><tspan>559350</tspan></text></g><g fill="none" color="#000" stroke="currentColor"><path stroke="#000" d="M78.8 428v-9m0-400.9v9"/><text transform="translate(78.8 449.9)" stroke="none" fill="#000" font-family="Arial" font-size="12" text-anchor="middle"><tspan>0</tspan></text></g><g fill="none" color="#000" stroke="currentColor"><path stroke="#000" d="M133 428v-9m0-400.9v9"/><text transform="translate(133 449.9)" stroke="none" fill="#000" font-family="Arial" font-size="12" text-anchor="middle"><tspan>10</tspan></text></g><g fill="none" color="#000" stroke="currentColor"><path stroke="#000" d="M187.1 428v-9m0-400.9v9"/><text transform="translate(187.1 449.9)" stroke="none" fill="#000" font-family="Arial" font-size="12" text-anchor="middle"><tspan>20</tspan></text></g><g fill="none" color="#000" stroke="currentColor"><path stroke="#000" d="M241.3 428v-9m0-400.9v9"/><text transform="translate(241.3 449.9)" stroke="none" fill="#000" font-family="Arial" font-size="12" text-anchor="middle"><tspan>30</tspan></text></g><g fill="none" color="#000" stroke="currentColor"><path stroke="#000" d="M295.4 428v-9m0-400.9v9"/><text transform="translate(295.4 449.9)" stroke="none" fill="#000" font-family="Arial" font-size="12" text-anchor="middle"><tspan>40</tspan></text></g><g fill="none" color="#000" stroke="currentColor"><path stroke="#000" d="M349.6 428v-9m0-400.9v9"/><text transform="translate(349.6 449.9)" stroke="none" fill="#000" font-family="Arial" font-size="12" text-anchor="middle"><tspan>50</tspan></text></g><g fill="none" color="#000" stroke="currentColor"><path stroke="#000" d="M403.8 428v-9m0-400.9v9"/><text transform="translate(403.8 449.9)" stroke="none" fill="#000" font-family="Arial" font-size="12" text-anchor="middle"><tspan>60</tspan></text></g><g fill="none" color="#000" stroke="currentColor"><path stroke="#000" d="M457.9 428v-9m0-400.9v9"/><text transform="translate(457.9 449.9)" stroke="none" fill="#000" font-family="Arial" font-size="12" text-anchor="middle"><tspan>70</tspan></text></g><g fill="none" color="#000" stroke="currentColor"><path stroke="#000" d="M512.1 428v-9m0-400.9v9"/><text transform="translate(512.1 449.9)" stroke="none" fill="#000" font-family="Arial" font-size="12" text-anchor="middle"><tspan>80</tspan></text></g><g fill="none" color="#000" stroke="currentColor"><path stroke="#000" d="M566.3 428v-9m0-400.9v9"/><text transform="translate(566.3 449.9)" stroke="none" fill="#000" font-family="Arial" font-size="12" text-anchor="middle"><tspan>90</tspan></text></g><path stroke="#000" d="M78.8 18.1V428H615V18.1H78.8z" fill="none" color="#000"/><text transform="translate(288.1 467.9)" stroke="none" fill="#000" font-family="Arial" font-size="12" text-anchor="end" color="#000"><tspan>pages+cached</tspan></text><path stroke="#9400D3" d="M296.4 464h42.2M78.8 420.1l5.4-367.7 5.4 1.5L95 79.6l5.5-11.3 5.4-1.3 5.4-5.7 5.4 20.3 5.4-1.1 5.4-5.4L133 87l5.4-21.5 5.4 2 5.4-6.5 5.4 11.1 5.4 1.5 5.5-10.3 5.4-3 5.4-1.4 5.4-2.8 5.4-9.1 5.4 27.9 5.5-18.2 5.4-2.6h5.4l5.4 24.4 5.4-16.4L225 65l5.5-11.4 5.4 30.3 5.4-4.7 5.4-18.3 5.4 2.1 5.4-14.8 5.4 28.4 5.5.3 5.4 5 5.4 8 5.4-26.7 5.4 15.9 5.4 12.4 5.5-8.9 5.4-29.1 5.4 24.7 5.4-6.5 5.4 17.6 5.4-.5 5.5-3.2 5.4 9.6 5.4-60.5 5.4 41.5 5.4-20.1 5.4-10.5 5.5 45.8 5.4-27.6 5.4-4.5 5.4 27.7 5.4-38 5.4 33.3 5.5-30.2 5.4 18.8 5.4 9.7 5.4-27.4L420 82l5.4-12.5 5.5-10.6 5.4-5.3 5.4-3.2 5.4 46.3 5.4-32.4 5.4 26.2 5.4-31.5 5.5 24.1 5.4-17.4 5.4-39.7 5.4 52.9 5.4 3.1 5.4-5.7 5.5 6.7 5.4 5.7 5.4-11.3 5.4-25.5 5.4 16.9 5.4-15.7 5.5 22.7 5.4-9.1 5.4 9.8 5.4-11.1 5.4 9.7 5.4 20.8 5.5-47.2 5.4-.8 5.4 30.6 5.4-20.1 5.4 9.3 5.4 22.8 5.5-12.2 5.4 16.2 5.4-37 5.4 14.3" fill="none" color="#000"/><text transform="translate(288.1 485.9)" stroke="none" fill="#000" font-family="Arial" font-size="12" text-anchor="end" color="#000"><tspan>pages+cached+nointeractive</tspan></text><path stroke="#009E73" d="M296.4 482h42.2M78.8 57.9l5.4 33.2 5.4-14.9 5.4 3.5 5.5-7.3 5.4-5.5 5.4-5.2 5.4 14.2 5.4-2.8 5.4.1 5.5-8.8 5.4 25 5.4-12.4 5.4-9.9 5.4 1.2 5.4-.3 5.5 10.9 5.4 24 5.4-57.5 5.4 18.6 5.4 17.7 5.4-11.2 5.5 16.9 5.4-19.1 5.4 29.8 5.4-21 5.4 6.9 5.4-16.2 5.5 30.9 5.4-40.3 5.4.8 5.4 5.5 5.4 2.2 5.4 6.5 5.4-14.9 5.5 2.4 5.4 10.6 5.4-2 5.4 20.6 5.4-23.4 5.4 9.2 5.5-21.6 5.4 37 5.4-14.4 5.4-23.3 5.4 21 5.4-6.6 5.5 2.8 5.4 3.4 5.4 14.6 5.4-18 5.4 28.8 5.4-22.5 5.5-3.7 5.4-19.8 5.4 26.7 5.4 15.8 5.4-17.9 5.4 1.2 5.5-8 5.4 3.4 5.4-18.2 5.4 10.4 5.4-28.9 5.4 22.9 5.5 8.1 5.4-3.3 5.4 5.6 5.4 12.9 5.4-15.9 5.4-17.7 5.4 17.4 5.5-27.4 5.4 43.6 5.4-24.7 5.4 24.3h5.4l5.4-3.4 5.5-1.1 5.4 6.2 5.4-17.8 5.4 15 5.4 4.2 5.4-15.9 5.5 5.4 5.4-14.2 5.4 13.1 5.4-35.5 5.4 44.4 5.4-9.7 5.5 10.7 5.4 2 5.4-6.8 5.4-2.8 5.4-16.1 5.4-4.6 5.5 12.4 5.4-12.2 5.4 35.6 5.4-11.1" fill="none" color="#000"/><text transform="translate(562.7 467.9)" stroke="none" fill="#000" font-family="Arial" font-size="12" text-anchor="end" color="#000"><tspan>score p10=28672</tspan></text><path stroke="#56B4E9" d="M571 464h42.2" fill="none" color="#000"/><g><text transform="translate(562.7 485.9)" stroke="none" fill="#000" font-family="Arial" font-size="12" text-anchor="end" color="#000"><tspan>score median=131072</tspan></text><path stroke="#E69F00" d="M571 482h42.2" fill="none" color="#000"/></g><g fill="none" color="#000" stroke="currentColor"><path stroke="#000" d="M78.8 18.1V428H615V18.1H78.8z"/></g></svg>

<?xml version="1.0" encoding="utf-8"  standalone="no"?>
<svg 
 width="640" height="500"
 viewBox="0 0 640 500"
 xmlns="http://www.w3.org/2000/svg"
 xmlns:xlink="http://www.w3.org/1999/xlink"
>

<title>Gnuplot</title>
<desc>Produced by GNUPLOT 5.4 patchlevel 0 </desc>

<g id="gnuplot_canvas">

<rect x="0" y="0" width="640" height="500" fill="#ffffff"/>
<defs>

	<circle id='gpDot' r='0.5' stroke-width='0.5' stroke='currentColor'/>
	<path id='gpPt0' stroke-width='0.222' stroke='currentColor' d='M-1,0 h2 M0,-1 v2'/>
	<path id='gpPt1' stroke-width='0.222' stroke='currentColor' d='M-1,-1 L1,1 M1,-1 L-1,1'/>
	<path id='gpPt2' stroke-width='0.222' stroke='currentColor' d='M-1,0 L1,0 M0,-1 L0,1 M-1,-1 L1,1 M-1,1 L1,-1'/>
	<rect id='gpPt3' stroke-width='0.222' stroke='currentColor' x='-1' y='-1' width='2' height='2'/>
	<rect id='gpPt4' stroke-width='0.222' stroke='currentColor' fill='currentColor' x='-1' y='-1' width='2' height='2'/>
	<circle id='gpPt5' stroke-width='0.222' stroke='currentColor' cx='0' cy='0' r='1'/>
	<use xlink:href='#gpPt5' id='gpPt6' fill='currentColor' stroke='none'/>
	<path id='gpPt7' stroke-width='0.222' stroke='currentColor' d='M0,-1.33 L-1.33,0.67 L1.33,0.67 z'/>
	<use xlink:href='#gpPt7' id='gpPt8' fill='currentColor' stroke='none'/>
	<use xlink:href='#gpPt7' id='gpPt9' stroke='currentColor' transform='rotate(180)'/>
	<use xlink:href='#gpPt9' id='gpPt10' fill='currentColor' stroke='none'/>
	<use xlink:href='#gpPt3' id='gpPt11' stroke='currentColor' transform='rotate(45)'/>
	<use xlink:href='#gpPt11' id='gpPt12' fill='currentColor' stroke='none'/>
	<path id='gpPt13' stroke-width='0.222' stroke='currentColor' d='M0,1.330 L1.265,0.411 L0.782,-1.067 L-0.782,-1.076 L-1.265,0.411 z'/>
	<use xlink:href='#gpPt13' id='gpPt14' fill='currentColor' stroke='none'/>
	<filter id='textbox' filterUnits='objectBoundingBox' x='0' y='0' height='1' width='1'>
	  <feFlood flood-color='#FFFFFF' flood-opacity='1' result='bgnd'/>
	  <feComposite in='SourceGraphic' in2='bgnd' operator='atop'/>
	</filter>
	<filter id='greybox' filterUnits='objectBoundingBox' x='0' y='0' height='1' width='1'>
	  <feFlood flood-color='lightgrey' flood-opacity='1' result='grey'/>
	  <feComposite in='SourceGraphic' in2='grey' operator='atop'/>
	</filter>
</defs>
<g fill="none" color="#FFFFFF" stroke="black" stroke-width="1.00" stroke-linecap="butt" stroke-linejoin="miter">
</g>
<g fill="none" color="black" stroke="currentColor" stroke-width="1.00" stroke-linecap="butt" stroke-linejoin="miter">
	<path stroke='black'  d='M78.8,405.8 L87.8,405.8 M615.0,405.8 L606.0,405.8  '/>	<g transform="translate(70.5,409.7)" stroke="none" fill="black" font-family="Arial" font-size="12.00"  text-anchor="end">
		<text><tspan font-family="Arial" > 559100</tspan></text>
	</g>
</g>
<g fill="none" color="black" stroke="currentColor" stroke-width="1.00" stroke-linecap="butt" stroke-linejoin="miter">
	<path stroke='black'  d='M78.8,328.6 L87.8,328.6 M615.0,328.6 L606.0,328.6  '/>	<g transform="translate(70.5,332.5)" stroke="none" fill="black" font-family="Arial" font-size="12.00"  text-anchor="end">
		<text><tspan font-family="Arial" > 559150</tspan></text>
	</g>
</g>
<g fill="none" color="black" stroke="currentColor" stroke-width="1.00" stroke-linecap="butt" stroke-linejoin="miter">
	<path stroke='black'  d='M78.8,251.4 L87.8,251.4 M615.0,251.4 L606.0,251.4  '/>	<g transform="translate(70.5,255.3)" stroke="none" fill="black" font-family="Arial" font-size="12.00"  text-anchor="end">
		<text><tspan font-family="Arial" > 559200</tspan></text>
	</g>
</g>
<g fill="none" color="black" stroke="currentColor" stroke-width="1.00" stroke-linecap="butt" stroke-linejoin="miter">
	<path stroke='black'  d='M78.8,174.2 L87.8,174.2 M615.0,174.2 L606.0,174.2  '/>	<g transform="translate(70.5,178.1)" stroke="none" fill="black" font-family="Arial" font-size="12.00"  text-anchor="end">
		<text><tspan font-family="Arial" > 559250</tspan></text>
	</g>
</g>
<g fill="none" color="black" stroke="currentColor" stroke-width="1.00" stroke-linecap="butt" stroke-linejoin="miter">
	<path stroke='black'  d='M78.8,97.0 L87.8,97.0 M615.0,97.0 L606.0,97.0  '/>	<g transform="translate(70.5,100.9)" stroke="none" fill="black" font-family="Arial" font-size="12.00"  text-anchor="end">
		<text><tspan font-family="Arial" > 559300</tspan></text>
	</g>
</g>
<g fill="none" color="black" stroke="currentColor" stroke-width="1.00" stroke-linecap="butt" stroke-linejoin="miter">
	<path stroke='black'  d='M78.8,19.8 L87.8,19.8 M615.0,19.8 L606.0,19.8  '/>	<g transform="translate(70.5,23.7)" stroke="none" fill="black" font-family="Arial" font-size="12.00"  text-anchor="end">
		<text><tspan font-family="Arial" > 559350</tspan></text>
	</g>
</g>
<g fill="none" color="black" stroke="currentColor" stroke-width="1.00" stroke-linecap="butt" stroke-linejoin="miter">
	<path stroke='black'  d='M78.8,428.0 L78.8,419.0 M78.8,18.1 L78.8,27.1  '/>	<g transform="translate(78.8,449.9)" stroke="none" fill="black" font-family="Arial" font-size="12.00"  text-anchor="middle">
		<text><tspan font-family="Arial" > 0</tspan></text>
	</g>
</g>
<g fill="none" color="black" stroke="currentColor" stroke-width="1.00" stroke-linecap="butt" stroke-linejoin="miter">
	<path stroke='black'  d='M133.0,428.0 L133.0,419.0 M133.0,18.1 L133.0,27.1  '/>	<g transform="translate(133.0,449.9)" stroke="none" fill="black" font-family="Arial" font-size="12.00"  text-anchor="middle">
		<text><tspan font-family="Arial" > 10</tspan></text>
	</g>
</g>
<g fill="none" color="black" stroke="currentColor" stroke-width="1.00" stroke-linecap="butt" stroke-linejoin="miter">
	<path stroke='black'  d='M187.1,428.0 L187.1,419.0 M187.1,18.1 L187.1,27.1  '/>	<g transform="translate(187.1,449.9)" stroke="none" fill="black" font-family="Arial" font-size="12.00"  text-anchor="middle">
		<text><tspan font-family="Arial" > 20</tspan></text>
	</g>
</g>
<g fill="none" color="black" stroke="currentColor" stroke-width="1.00" stroke-linecap="butt" stroke-linejoin="miter">
	<path stroke='black'  d='M241.3,428.0 L241.3,419.0 M241.3,18.1 L241.3,27.1  '/>	<g transform="translate(241.3,449.9)" stroke="none" fill="black" font-family="Arial" font-size="12.00"  text-anchor="middle">
		<text><tspan font-family="Arial" > 30</tspan></text>
	</g>
</g>
<g fill="none" color="black" stroke="currentColor" stroke-width="1.00" stroke-linecap="butt" stroke-linejoin="miter">
	<path stroke='black'  d='M295.4,428.0 L295.4,419.0 M295.4,18.1 L295.4,27.1  '/>	<g transform="translate(295.4,449.9)" stroke="none" fill="black" font-family="Arial" font-size="12.00"  text-anchor="middle">
		<text><tspan font-family="Arial" > 40</tspan></text>
	</g>
</g>
<g fill="none" color="black" stroke="currentColor" stroke-width="1.00" stroke-linecap="butt" stroke-linejoin="miter">
	<path stroke='black'  d='M349.6,428.0 L349.6,419.0 M349.6,18.1 L349.6,27.1  '/>	<g transform="translate(349.6,449.9)" stroke="none" fill="black" font-family="Arial" font-size="12.00"  text-anchor="middle">
		<text><tspan font-family="Arial" > 50</tspan></text>
	</g>
</g>
<g fill="none" color="black" stroke="currentColor" stroke-width="1.00" stroke-linecap="butt" stroke-linejoin="miter">
	<path stroke='black'  d='M403.8,428.0 L403.8,419.0 M403.8,18.1 L403.8,27.1  '/>	<g transform="translate(403.8,449.9)" stroke="none" fill="black" font-family="Arial" font-size="12.00"  text-anchor="middle">
		<text><tspan font-family="Arial" > 60</tspan></text>
	</g>
</g>
<g fill="none" color="black" stroke="currentColor" stroke-width="1.00" stroke-linecap="butt" stroke-linejoin="miter">
	<path stroke='black'  d='M457.9,428.0 L457.9,419.0 M457.9,18.1 L457.9,27.1  '/>	<g transform="translate(457.9,449.9)" stroke="none" fill="black" font-family="Arial" font-size="12.00"  text-anchor="middle">
		<text><tspan font-family="Arial" > 70</tspan></text>
	</g>
</g>
<g fill="none" color="black" stroke="currentColor" stroke-width="1.00" stroke-linecap="butt" stroke-linejoin="miter">
	<path stroke='black'  d='M512.1,428.0 L512.1,419.0 M512.1,18.1 L512.1,27.1  '/>	<g transform="translate(512.1,449.9)" stroke="none" fill="black" font-family="Arial" font-size="12.00"  text-anchor="middle">
		<text><tspan font-family="Arial" > 80</tspan></text>
	</g>
</g>
<g fill="none" color="black" stroke="currentColor" stroke-width="1.00" stroke-linecap="butt" stroke-linejoin="miter">
	<path stroke='black'  d='M566.3,428.0 L566.3,419.0 M566.3,18.1 L566.3,27.1  '/>	<g transform="translate(566.3,449.9)" stroke="none" fill="black" font-family="Arial" font-size="12.00"  text-anchor="middle">
		<text><tspan font-family="Arial" > 90</tspan></text>
	</g>
</g>
<g fill="none" color="black" stroke="currentColor" stroke-width="1.00" stroke-linecap="butt" stroke-linejoin="miter">
</g>
<g fill="none" color="black" stroke="currentColor" stroke-width="1.00" stroke-linecap="butt" stroke-linejoin="miter">
	<path stroke='black'  d='M78.8,18.1 L78.8,428.0 L615.0,428.0 L615.0,18.1 L78.8,18.1 Z  '/></g>
<g fill="none" color="black" stroke="currentColor" stroke-width="1.00" stroke-linecap="butt" stroke-linejoin="miter">
</g>
	<g id="gnuplot_plot_1" ><title>pages+cached</title>
<g fill="none" color="black" stroke="currentColor" stroke-width="1.00" stroke-linecap="butt" stroke-linejoin="miter">
	<g transform="translate(288.1,467.9)" stroke="none" fill="black" font-family="Arial" font-size="12.00"  text-anchor="end">
		<text><tspan font-family="Arial" >pages+cached</tspan></text>
	</g>
</g>
<g fill="none" color="black" stroke="currentColor" stroke-width="1.00" stroke-linecap="butt" stroke-linejoin="miter">
	<path stroke='rgb(148,   0, 211)'  d='M296.4,464.0 L338.6,464.0 M78.8,420.1 L84.2,52.4 L89.6,53.9 L95.0,79.6 L100.5,68.3 L105.9,67.0
		L111.3,61.3 L116.7,81.6 L122.1,80.5 L127.5,75.1 L133.0,87.0 L138.4,65.5 L143.8,67.5 L149.2,61.0
		L154.6,72.1 L160.0,73.6 L165.5,63.3 L170.9,60.3 L176.3,58.9 L181.7,56.1 L187.1,47.0 L192.5,74.9
		L198.0,56.7 L203.4,54.1 L208.8,54.1 L214.2,78.5 L219.6,62.1 L225.0,65.0 L230.5,53.6 L235.9,83.9
		L241.3,79.2 L246.7,60.9 L252.1,63.0 L257.5,48.2 L262.9,76.6 L268.4,76.9 L273.8,81.9 L279.2,89.9
		L284.6,63.2 L290.0,79.1 L295.4,91.5 L300.9,82.6 L306.3,53.5 L311.7,78.2 L317.1,71.7 L322.5,89.3
		L327.9,88.8 L333.4,85.6 L338.8,95.2 L344.2,34.7 L349.6,76.2 L355.0,56.1 L360.4,45.6 L365.9,91.4
		L371.3,63.8 L376.7,59.3 L382.1,87.0 L387.5,49.0 L392.9,82.3 L398.4,52.1 L403.8,70.9 L409.2,80.6
		L414.6,53.2 L420.0,82.0 L425.4,69.5 L430.9,58.9 L436.3,53.6 L441.7,50.4 L447.1,96.7 L452.5,64.3
		L457.9,90.5 L463.3,59.0 L468.8,83.1 L474.2,65.7 L479.6,26.0 L485.0,78.9 L490.4,82.0 L495.8,76.3
		L501.3,83.0 L506.7,88.7 L512.1,77.4 L517.5,51.9 L522.9,68.8 L528.3,53.1 L533.8,75.8 L539.2,66.7
		L544.6,76.5 L550.0,65.4 L555.4,75.1 L560.8,95.9 L566.3,48.7 L571.7,47.9 L577.1,78.5 L582.5,58.4
		L587.9,67.7 L593.3,90.5 L598.8,78.3 L604.2,94.5 L609.6,57.5 L615.0,71.8  '/></g>
	</g>
	<g id="gnuplot_plot_2" ><title>pages+cached+nointeractive</title>
<g fill="none" color="black" stroke="currentColor" stroke-width="1.00" stroke-linecap="butt" stroke-linejoin="miter">
	<g transform="translate(288.1,485.9)" stroke="none" fill="black" font-family="Arial" font-size="12.00"  text-anchor="end">
		<text><tspan font-family="Arial" >pages+cached+nointeractive</tspan></text>
	</g>
</g>
<g fill="none" color="black" stroke="currentColor" stroke-width="1.00" stroke-linecap="butt" stroke-linejoin="miter">
	<path stroke='rgb(  0, 158, 115)'  d='M296.4,482.0 L338.6,482.0 M78.8,57.9 L84.2,91.1 L89.6,76.2 L95.0,79.7 L100.5,72.4 L105.9,66.9
		L111.3,61.7 L116.7,75.9 L122.1,73.1 L127.5,73.2 L133.0,64.4 L138.4,89.4 L143.8,77.0 L149.2,67.1
		L154.6,68.3 L160.0,68.0 L165.5,78.9 L170.9,102.9 L176.3,45.4 L181.7,64.0 L187.1,81.7 L192.5,70.5
		L198.0,87.4 L203.4,68.3 L208.8,98.1 L214.2,77.1 L219.6,84.0 L225.0,67.8 L230.5,98.7 L235.9,58.4
		L241.3,59.2 L246.7,64.7 L252.1,66.9 L257.5,73.4 L262.9,58.5 L268.4,60.9 L273.8,71.5 L279.2,69.5
		L284.6,90.1 L290.0,66.7 L295.4,75.9 L300.9,54.3 L306.3,91.3 L311.7,76.9 L317.1,53.6 L322.5,74.6
		L327.9,68.0 L333.4,70.8 L338.8,74.2 L344.2,88.8 L349.6,70.8 L355.0,99.6 L360.4,77.1 L365.9,73.4
		L371.3,53.6 L376.7,80.3 L382.1,96.1 L387.5,78.2 L392.9,79.4 L398.4,71.4 L403.8,74.8 L409.2,56.6
		L414.6,67.0 L420.0,38.1 L425.4,61.0 L430.9,69.1 L436.3,65.8 L441.7,71.4 L447.1,84.3 L452.5,68.4
		L457.9,50.7 L463.3,68.1 L468.8,40.7 L474.2,84.3 L479.6,59.6 L485.0,83.9 L490.4,83.9 L495.8,80.5
		L501.3,79.4 L506.7,85.6 L512.1,67.8 L517.5,82.8 L522.9,87.0 L528.3,71.1 L533.8,76.5 L539.2,62.3
		L544.6,75.4 L550.0,39.9 L555.4,84.3 L560.8,74.6 L566.3,85.3 L571.7,87.3 L577.1,80.5 L582.5,77.7
		L587.9,61.6 L593.3,57.0 L598.8,69.4 L604.2,57.2 L609.6,92.8 L615.0,81.7  '/></g>
	</g>
	<g id="gnuplot_plot_3" ><title>score p10=28672</title>
<g fill="none" color="black" stroke="currentColor" stroke-width="1.00" stroke-linecap="butt" stroke-linejoin="miter">
	<g transform="translate(562.7,467.9)" stroke="none" fill="black" font-family="Arial" font-size="12.00"  text-anchor="end">
		<text><tspan font-family="Arial" >score p10=28672</tspan></text>
	</g>
</g>
<g fill="none" color="black" stroke="currentColor" stroke-width="1.00" stroke-linecap="butt" stroke-linejoin="miter">
	<path stroke='rgb( 86, 180, 233)'  d='M571.0,464.0 L613.2,464.0  '/></g>
	</g>
	<g id="gnuplot_plot_4" ><title>score median=131072</title>
<g fill="none" color="black" stroke="currentColor" stroke-width="1.00" stroke-linecap="butt" stroke-linejoin="miter">
	<g transform="translate(562.7,485.9)" stroke="none" fill="black" font-family="Arial" font-size="12.00"  text-anchor="end">
		<text><tspan font-family="Arial" >score median=131072</tspan></text>
	</g>
</g>
<g fill="none" color="black" stroke="currentColor" stroke-width="1.00" stroke-linecap="butt" stroke-linejoin="miter">
	<path stroke='rgb(230, 159,   0)'  d='M571.0,482.0 L613.2,482.0  '/></g>
	</g>
<g fill="none" color="#FFFFFF" stroke="rgb(230, 159,   0)" stroke-width="2.00" stroke-linecap="butt" stroke-linejoin="miter">
</g>
<g fill="none" color="black" stroke="currentColor" stroke-width="2.00" stroke-linecap="butt" stroke-linejoin="miter">
</g>
<g fill="none" color="black" stroke="black" stroke-width="1.00" stroke-linecap="butt" stroke-linejoin="miter">
</g>
<g fill="none" color="black" stroke="currentColor" stroke-width="1.00" stroke-linecap="butt" stroke-linejoin="miter">
	<path stroke='black'  d='M78.8,18.1 L78.8,428.0 L615.0,428.0 L615.0,18.1 L78.8,18.1 Z  '/></g>
<g fill="none" color="black" stroke="currentColor" stroke-width="1.00" stroke-linecap="butt" stroke-linejoin="miter">
</g>
</g>
</svg>
